News.svg

<svg width="100%" height="100%" viewBox="0 0 24 24" version="1.1" xmlns="http://www.w3.org/2000/svg" xml:space="preserve" fill-rule="evenodd" clip-rule="evenodd" stroke-linecap="round" stroke-miterlimit="10">
  <path d="M12 12h7m0-4h-7m-3 4.5v-5c0-.3-.2-.5-.5-.5h-3c-.3 0-.5.2-.5.5v5c0 .3.2.5.5.5h3c.3 0 .5-.2.5-.5zM22 18V5c0-.6-.5-1-1-1H3c-.5 0-1 .4-1 1v13c0 1.1.9 2 2 2h16c1.1 0 2-.9 2-2z" fill="none" stroke="#757575" stroke-width=".8"/>
</svg>

<?xml version="1.0" encoding="utf-8"?>
<!-- Generator: Adobe Illustrator 21.1.0, SVG Export Plug-In . SVG Version: 6.00 Build 0)  -->
<svg version="1.1" id="Ebene_1" xmlns="http://www.w3.org/2000/svg" xmlns:xlink="http://www.w3.org/1999/xlink" x="0px" y="0px"
	 viewBox="0 0 24 24" style="enable-background:new 0 0 24 24;" xml:space="preserve">
<style type="text/css">
	.st0{fill:none;stroke:#757575;stroke-width:0.8;stroke-miterlimit:10;}
</style>
<path class="st0" d="M12,12h7 M19,8L19,8h-7 M9,12.5v-5C9,7.2,8.8,7,8.5,7h-3C5.2,7,5,7.2,5,7.5v5C5,12.8,5.2,13,5.5,13h3
	C8.8,13,9,12.8,9,12.5z M22,18V5c0-0.6-0.5-1-1-1H3C2.5,4,2,4.4,2,5v13c0,1.1,0.9,2,2,2h16C21.1,20,22,19.1,22,18z"/>
</svg>
